src/sources/forus-platform/resources/_platform-common/assets/img/features/icons/reimbursements/icon-2.svg

<svg width="59" height="58" viewBox="0 0 59 58" fill="none" xmlns="http://www.w3.org/2000/svg">
    <rect x="0.5" width="58" height="58" rx="8" fill="#F7F9FC"/>
    <path d="M27.1 31.7333C27.7 32.5333 28.5666 32.9333 29.5 32.9333C30.4333 32.9333 31.3666 32.4666 31.9 31.7333C31.9666 31.6666 31.9666 31.6 32.0333 31.5333L31.4333 31.3333C30.9666 31.9333 30.3 32.2666 29.5666 32.2666C28.8999 32.2666 28.1666 31.9333 27.6999 31.3333L27.0332 31.5333C27.0333 31.6 27.0333 31.7333 27.1 31.7333Z" fill="#F8B64C"/>
    <path d="M45.5 31.8667V26.1334L42.5 24.8667C42.3 24.1334 41.9667 23.4 41.6333 22.7334L42.8333 19.6667L38.7666 15.6667L35.7666 16.8667C35.1 16.5333 34.3667 16.2 33.6333 16L32.3667 13H26.6334L25.3667 16C24.6334 16.2667 23.9 16.5333 23.2334 16.8667L20.2334 15.6667L16.1667 19.7334L17.4333 22.8C17.1 23.4667 16.7666 24.2 16.5666 24.9333L13.5 26.1333V31.8666L16.5 33.1333C16.7667 33.8666 17.0333 34.6 17.3667 35.2666L16.1667 38.2666L20.2334 42.3333L23.3001 41.1333C23.9667 41.4666 24.7001 41.8 25.4334 42L26.7001 45H32.4334L33.7001 42C34.4334 41.7333 35.1668 41.4667 35.8334 41.1333L38.8334 42.3333L42.9001 38.2666L41.7001 35.2666C42.0334 34.5999 42.3667 33.8666 42.5667 33.1333L45.5 31.8667ZM29.5 36.1333C25.5667 36.1333 22.3667 32.9333 22.3667 29C22.3667 25.0667 25.5667 21.8667 29.5 21.8667C33.4333 21.8667 36.6333 25.0667 36.6333 29C36.6333 32.9333 33.4333 36.1333 29.5 36.1333Z" fill="#092DAA"/>
    <circle cx="29.5" cy="29" r="10" fill="#092DAA"/>
    <path d="M24.4329 34.0667C21.6329 31.2667 21.6329 26.7334 24.4329 24C27.2329 21.2 31.7662 21.2 34.4996 24L36.6329 21.8667C32.6996 17.9334 26.2329 17.9334 22.2996 21.8667C18.3663 25.8 18.3663 32.2667 22.2996 36.2L24.4329 34.0667Z" fill="#305DFC"/>
    <path d="M36.6996 36.2C40.6329 32.2667 40.6329 25.8 36.6996 21.8667L34.5663 24C37.3663 26.8 37.3663 31.3333 34.5663 34.0667C31.7663 36.8667 27.233 36.8667 24.4996 34.0667L22.3663 36.2C26.2996 40.1333 32.6996 40.1333 36.6996 36.2Z" fill="#305DFC"/>
    <path d="M27.0986 27.9309C27.0452 27.3217 26.6602 26.8578 26.2384 26.8947C25.8167 26.9317 25.5181 27.4554 25.5714 28.0645C25.6247 28.6737 26.0098 29.1376 26.4315 29.1006C26.8532 29.0637 27.1519 28.54 27.0986 27.9309Z" fill="#C4D1FF"/>
    <path d="M33.4069 28.0657C33.4602 27.4565 33.1615 26.9328 32.7398 26.8959C32.3181 26.859 31.9331 27.3229 31.8797 27.932C31.8264 28.5412 32.1251 29.0649 32.5468 29.1018C32.9685 29.1387 33.3535 28.6748 33.4069 28.0657Z" fill="#C4D1FF"/>
    <path d="M26.2173 24.875C25.9606 25.2993 25.875 25.8085 25.875 26.4026V27.5059C25.875 27.7605 25.875 28.0151 25.9606 28.3546C26.1317 29.7125 26.7307 30.9856 27.6719 32.0888L28.0142 32.4283C28.3565 32.7678 28.7843 32.9375 29.2121 32.9375H29.7254C30.1532 32.9375 30.6666 32.7678 30.9233 32.4283L31.2656 32.0888C32.2068 31.0704 32.8058 29.7974 32.9769 28.3546C32.9769 28.1 33.0625 27.8454 33.0625 27.5059V26.4026C33.0625 25.8934 32.9769 25.3842 32.7202 24.875H26.2173Z" fill="white"/>
    <path d="M31.2812 32.0208L30.9419 32.3635C30.6026 32.7061 30.1785 32.8773 29.7545 32.8773H29.2455C28.8215 32.8773 28.3125 32.7061 28.0581 32.3635L27.7188 32.0208C27.4643 31.7639 27.2947 31.5069 27.125 31.25V32.6204L29.5 35.875L31.875 32.6204V31.25C31.7053 31.5069 31.5357 31.7639 31.2812 32.0208Z" fill="#C4D1FF"/>
    <path d="M25.9654 28.206L26.3906 28.375C26.3056 27.9526 26.3906 27.3611 26.5607 27.0231C26.5607 27.0231 26.3056 24.9954 27.8365 25.1643C27.8365 25.1643 29.0272 25.5867 31.2386 25.1643C31.2386 25.1643 32.1741 25.0798 32.0041 26.0937C32.0041 26.0937 32.0041 27.1921 32.5144 27.4456V28.3749L33.0247 28.2904C33.1098 27.9524 33.0247 25.5867 33.0247 25.5867C32.6845 23.897 30.6432 22.9675 30.6432 22.9675C30.8133 22.7141 31.1535 22.7986 31.1535 22.7986C28.5169 21.1932 26.8159 22.7141 26.8159 22.7141C24.9447 24.4038 25.9653 26.3472 25.9653 26.3472C25.7952 27.1077 25.8803 27.7836 25.9654 28.206Z" fill="#769AF7"/>
    <path fill-rule="evenodd" clip-rule="evenodd" d="M37.2207 35.3558C35.3866 37.5812 32.609 39 29.5 39C26.4738 39 23.7615 37.6557 21.9277 35.5317C22.2171 35.0583 22.6421 34.6637 23.1391 34.4375L27.2228 32.5625C27.8184 33.3295 28.7542 33.7557 29.605 33.7557C30.5409 33.7557 31.3917 33.3295 31.9872 32.5625L36.071 34.4375C36.5566 34.6402 36.9459 34.9585 37.2207 35.3558Z" fill="white"/>
</svg>

<svg width="59" height="58" fill="none" xmlns="http://www.w3.org/2000/svg"><rect x=".5" width="58" height="58" rx="8" fill="#F7F9FC"/><path d="M27.1 31.733c.6.8 1.467 1.2 2.4 1.2.933 0 1.867-.466 2.4-1.2.067-.066.067-.133.133-.2l-.6-.2c-.466.6-1.133.934-1.866.934-.667 0-1.4-.334-1.867-.934l-.667.2c0 .067 0 .2.067.2Z" fill="#F8B64C"/><path d="M45.5 31.867v-5.734l-3-1.266c-.2-.734-.533-1.467-.867-2.134l1.2-3.066-4.066-4-3 1.2c-.667-.334-1.4-.667-2.134-.867l-1.266-3h-5.734l-1.266 3c-.734.267-1.467.533-2.134.867l-3-1.2-4.066 4.066 1.266 3.067c-.333.667-.666 1.4-.866 2.133l-3.067 1.2v5.734l3 1.266c.267.734.533 1.467.867 2.134l-1.2 3 4.066 4.066 3.067-1.2c.667.334 1.4.667 2.133.867l1.267 3h5.733l1.267-3c.733-.267 1.467-.533 2.133-.867l3 1.2 4.067-4.066-1.2-3c.333-.667.667-1.4.867-2.134l2.933-1.266Zm-16 4.266A7.141 7.141 0 0 1 22.367 29c0-3.933 3.2-7.133 7.133-7.133s7.133 3.2 7.133 7.133-3.2 7.133-7.133 7.133Z" fill="#092DAA"/><circle cx="29.5" cy="29" r="10" fill="#092DAA"/><path d="M24.433 34.067c-2.8-2.8-2.8-7.334 0-10.067 2.8-2.8 7.333-2.8 10.067 0l2.133-2.133c-3.933-3.934-10.4-3.934-14.333 0-3.934 3.933-3.934 10.4 0 14.333l2.133-2.133ZM36.7 36.2c3.933-3.933 3.933-10.4 0-14.333L34.566 24c2.8 2.8 2.8 7.333 0 10.067-2.8 2.8-7.333 2.8-10.066 0L22.366 36.2c3.934 3.933 10.334 3.933 14.334 0Z" fill="#305DFC"/><path d="M27.099 27.93c-.054-.608-.439-1.072-.86-1.035-.422.037-.72.56-.668 1.17.054.609.439 1.073.86 1.036.422-.037.72-.561.668-1.17ZM33.407 28.066c.053-.61-.245-1.133-.667-1.17-.422-.037-.807.427-.86 1.036-.054.61.245 1.133.667 1.17.422.037.806-.427.86-1.036Z" fill="#C4D1FF"/><path d="M26.217 24.875c-.256.424-.342.933-.342 1.528v1.103c0 .255 0 .51.086.849.17 1.357.77 2.63 1.71 3.734l.343.34c.343.339.77.508 1.198.508h.513c.428 0 .942-.17 1.198-.509l.343-.34a6.577 6.577 0 0 0 1.71-3.733c0-.255.087-.51.087-.85v-1.102c0-.51-.086-1.019-.343-1.528h-6.503Z" fill="#fff"/><path d="m31.281 32.02-.34.343c-.338.343-.762.514-1.186.514h-.51c-.424 0-.933-.17-1.187-.514l-.34-.342c-.254-.257-.423-.514-.593-.771v1.37l2.375 3.255 2.375-3.255v-1.37c-.17.257-.34.514-.594.77Z" fill="#C4D1FF"/><path d="m25.965 28.206.426.169c-.085-.422 0-1.014.17-1.352 0 0-.255-2.028 1.276-1.859 0 0 1.19.423 3.402 0 0 0 .935-.084.765.93 0 0 0 1.098.51 1.352v.929l.51-.085c.086-.338 0-2.703 0-2.703-.34-1.69-2.38-2.62-2.38-2.62.17-.253.51-.168.51-.168-2.637-1.606-4.338-.085-4.338-.085-1.871 1.69-.85 3.633-.85 3.633a4.478 4.478 0 0 0 0 1.859Z" fill="#769AF7"/><path fill-rule="evenodd" clip-rule="evenodd" d="M37.22 35.356A9.98 9.98 0 0 1 29.5 39a9.977 9.977 0 0 1-7.572-3.468c.29-.474.714-.868 1.211-1.094l4.084-1.876c.595.768 1.531 1.194 2.382 1.194.936 0 1.787-.426 2.382-1.194l4.084 1.876c.486.202.875.52 1.15.918Z" fill="#fff"/></svg>
